X:1
T:A New Hornpipe
M:4/4
L:1/8
S:Playford, 'The Division Violin', 1684
S:pete stewart  tradtunes 2005-6-25
N:Appears in 'Apollo's Banquet, 1687, as 'A New Scotch hornpipe'
H:later 'Dumbarton's Drums'
K:G
d|B3d BdBA|G2d4cB|AGAB dAcG|E2d4ef|gaba bage|gedc g3G|AGAB dABG|E2 (e2e3)||
